X:1
T:Postcard from Dublin, The
R:reel
C:Tiennet Simonnin
M:C|
K:Ador
~A3B c~A3|BGBd ~e3f|geaf gabg|aged egdB|
~A3B c~A3|BGBd ~e3g|
fage fded|1 cedB AGEG:|2 cedB ~A3B||
c~g3 ageg|aged cdef|gded ~B2AB|dege dBGB|
^c~A3 Bdeg|a~g3 egdB|A2B/c/d edeg|agba gedB:||
